packages/suite-data/files/images/svg/coinmarket-waiting.svg

<svg width="36" height="44" viewBox="0 0 36 44" fill="none" xmlns="http://www.w3.org/2000/svg">
<path opacity="0.15" d="M33.7801 40.0201H32.1601V36.84C32.1601 32.34 29.5201 28.32 25.3801 26.5201C24.6001 25.92 24.1801 25.0201 24.1801 24C24.1801 23.0401 24.6001 22.08 25.3801 21.48C29.5201 19.74 32.1601 15.72 32.1601 11.16V7.98005H33.7801C34.6801 7.98005 35.4001 7.26005 35.4001 6.36005C35.4001 5.46005 34.6801 4.80005 33.7801 4.80005H8.2201C7.3201 4.80005 6.6001 5.52005 6.6001 6.42005C6.6001 7.32005 7.3201 8.04005 8.2201 8.04005H9.8401V11.22C9.8401 15.72 12.4801 19.7401 16.6201 21.5401C17.4001 22.1401 17.8201 23.04 17.8201 24.06C17.8201 25.02 17.4001 25.98 16.6201 26.58C12.4801 28.32 9.8401 32.3401 9.8401 36.9001V40.0801H8.2201C7.3201 40.0801 6.6001 40.8 6.6001 41.7001C6.6001 42.6001 7.3201 43.32 8.2201 43.32H33.8401C34.7401 43.32 35.4601 42.6001 35.4601 41.7001C35.4001 40.7401 34.6801 40.0201 33.7801 40.0201ZM13.0201 36.78C13.0201 33.48 15.0001 30.6 18.0001 29.34L18.3601 29.16C20.0401 27.96 21.0001 26.04 21.0001 23.94C21.0001 21.9 19.9801 19.92 18.3601 18.72L18.0001 18.54C15.0001 17.28 13.0201 14.4 13.0201 11.1V7.92005H29.0401V11.1C29.0401 14.4 27.0601 17.28 24.0601 18.54L23.7001 18.72C22.0201 19.92 21.0601 21.84 21.0601 23.94C21.0601 25.98 22.0801 27.96 23.7601 29.16C23.8801 29.2801 24.0601 29.34 24.1801 29.4C27.1801 30.66 29.1001 33.54 29.1001 36.78V39.96H13.0201V36.78Z" fill="#C19009"/>
<path d="M27.7801 36.0201H26.1601V32.84C26.1601 28.34 23.5201 24.32 19.3801 22.5201C18.6001 21.92 18.1801 21.0201 18.1801 20C18.1801 19.0401 18.6001 18.08 19.3801 17.48C23.5201 15.74 26.1601 11.72 26.1601 7.16005V3.98005H27.7801C28.6801 3.98005 29.4001 3.26005 29.4001 2.36005C29.4001 1.46005 28.6801 0.800049 27.7801 0.800049H2.2201C1.3201 0.800049 0.600098 1.52005 0.600098 2.42005C0.600098 3.32005 1.3201 4.04005 2.2201 4.04005H3.8401V7.22005C3.8401 11.72 6.4801 15.7401 10.6201 17.5401C11.4001 18.1401 11.8201 19.04 11.8201 20.06C11.8201 21.02 11.4001 21.98 10.6201 22.58C6.4801 24.32 3.8401 28.3401 3.8401 32.9001V36.0801H2.2201C1.3201 36.0801 0.600098 36.8 0.600098 37.7001C0.600098 38.6001 1.3201 39.32 2.2201 39.32H27.8401C28.7401 39.32 29.4601 38.6001 29.4601 37.7001C29.4001 36.7401 28.6801 36.0201 27.7801 36.0201ZM7.0201 32.78C7.0201 29.48 9.0001 26.6 12.0001 25.34L12.3601 25.16C14.0401 23.96 15.0001 22.0401 15.0001 19.9401C15.0001 17.9001 13.9801 15.92 12.3601 14.72L12.0001 14.54C9.0001 13.28 7.0201 10.4 7.0201 7.10005V3.92005H23.0401V7.10005C23.0401 10.4 21.0601 13.28 18.0601 14.54L17.7001 14.72C16.0201 15.92 15.0601 17.84 15.0601 19.9401C15.0601 21.98 16.0801 23.96 17.7601 25.16C17.8801 25.2801 18.0601 25.34 18.1801 25.4C21.1801 26.66 23.1001 29.54 23.1001 32.78V35.96H7.0201V32.78Z" fill="#C19009"/>
</svg>

<svg xmlns="http://www.w3.org/2000/svg" width="36" height="44" fill="none" viewBox="0 0 36 44">
    <path fill="#C19009" d="M33.78 40.02h-1.62v-3.18c0-4.5-2.64-8.52-6.78-10.32-.78-.6-1.2-1.5-1.2-2.52 0-.96.42-1.92 1.2-2.52 4.14-1.74 6.78-5.76 6.78-10.32V7.98h1.62c.9 0 1.62-.72 1.62-1.62 0-.9-.72-1.56-1.62-1.56H8.22c-.9 0-1.62.72-1.62 1.62 0 .9.72 1.62 1.62 1.62h1.62v3.18c0 4.5 2.64 8.52 6.78 10.32.78.6 1.2 1.5 1.2 2.52 0 .96-.42 1.92-1.2 2.52-4.14 1.74-6.78 5.76-6.78 10.32v3.18H8.22c-.9 0-1.62.72-1.62 1.62 0 .9.72 1.62 1.62 1.62h25.62c.9 0 1.62-.72 1.62-1.62-.06-.96-.78-1.68-1.68-1.68zm-20.76-3.24c0-3.3 1.98-6.18 4.98-7.44l.36-.18c1.68-1.2 2.64-3.12 2.64-5.22 0-2.04-1.02-4.02-2.64-5.22l-.36-.18c-3-1.26-4.98-4.14-4.98-7.44V7.92h16.02v3.18c0 3.3-1.98 6.18-4.98 7.44l-.36.18c-1.68 1.2-2.64 3.12-2.64 5.22 0 2.04 1.02 4.02 2.7 5.22.12.12.3.18.42.24 3 1.26 4.92 4.14 4.92 7.38v3.18H13.02v-3.18z" opacity=".15"/>
    <path fill="#C19009" d="M27.78 36.02h-1.62v-3.18c0-4.5-2.64-8.52-6.78-10.32-.78-.6-1.2-1.5-1.2-2.52 0-.96.42-1.92 1.2-2.52 4.14-1.74 6.78-5.76 6.78-10.32V3.98h1.62c.9 0 1.62-.72 1.62-1.62 0-.9-.72-1.56-1.62-1.56H2.22C1.32.8.6 1.52.6 2.42c0 .9.72 1.62 1.62 1.62h1.62v3.18c0 4.5 2.64 8.52 6.78 10.32.78.6 1.2 1.5 1.2 2.52 0 .96-.42 1.92-1.2 2.52-4.14 1.74-6.78 5.76-6.78 10.32v3.18H2.22c-.9 0-1.62.72-1.62 1.62 0 .9.72 1.62 1.62 1.62h25.62c.9 0 1.62-.72 1.62-1.62-.06-.96-.78-1.68-1.68-1.68zM7.02 32.78c0-3.3 1.98-6.18 4.98-7.44l.36-.18c1.68-1.2 2.64-3.12 2.64-5.22 0-2.04-1.02-4.02-2.64-5.22l-.36-.18C9 13.28 7.02 10.4 7.02 7.1V3.92h16.02V7.1c0 3.3-1.98 6.18-4.98 7.44l-.36.18c-1.68 1.2-2.64 3.12-2.64 5.22 0 2.04 1.02 4.02 2.7 5.22.12.12.3.18.42.24 3 1.26 4.92 4.14 4.92 7.38v3.18H7.02v-3.18z"/>
</svg>
